;FLAVOR:Marlin
; TIME:400
;MATERIAL:160
; MATERIAL2: 0
;NOZZLE_DIAMETER: 2.2866292
;Layer count: 425
;LAYER:0
M82 ; absolute extrusion mode
G21 ; set units to millimeters
G90 ; use absolute positioning
M82 ; absolute extrusion mode
M104 S210 ; set extruder temp
M140 S60 ; set bed temp
M190 S60 ; wait for bed temp
M109 S210 ; wait for extruder temp
G28 W ; home all without mesh bed level
G80 ; mesh bed leveling
G92 E0.0 ; reset extruder distance position
G1 Y-3.0 F1000.0 ; go outside print area
G1 X60.0 E9.0 F1000.0 ; intro line
G1 X100.0 E21.5 F1000.0 ; intro line
G92 E0.0 ; reset extruder distance position
M107
G0 F9000 X10 Y110
G0  F1500
;Generated with:RightToe4.svg
;Copyright 2017 Troy Nachtigall, Loe Feijs and Bart Pruijmboom
G0  F750 Z0.375
M117 1 out of 425state is base
G1 X 0086.28 Y 0192.76 Z 0.375
 G1 X 0079.69 Y 0190.16 E 0002.12 Z 0.375
 G1 X 0073.07 Y 0187.65 E 0004.25 Z 0.375
 G1 X 0068.61 Y 0182.95 E 0006.19 Z 0.375
 G1 X 0065.78 Y 0176.46 E 0008.32 Z 0.375
 G1 X 0062.91 Y 0169.98 E 0010.44 Z 0.375
 G1 X 0060.05 Y 0163.50 E 0012.57 Z 0.375
 G1 X 0057.18 Y 0157.01 E 0014.70 Z 0.375
 G1 X 0054.44 Y 0150.48 E 0016.82 Z 0.375
 G1 X 0049.18 Y 0146.76 E 0018.75 Z 0.375
 G1 X 0042.39 Y 0144.73 E 0020.88 Z 0.375
 G1 X 0035.60 Y 0142.70 E 0023.01 Z 0.375
 G1 X 0028.82 Y 0140.67 E 0025.13 Z 0.375
 G1 X 0030.81 Y 0133.99 E 0027.22 Z 0.375
 G1 X 0033.05 Y 0127.28 E 0029.34 Z 0.375
 G1 X 0035.64 Y 0120.67 E 0031.47 Z 0.375
 G1 X 0038.22 Y 0114.07 E 0033.60 Z 0.375
 G1 X 0040.89 Y 0107.51 E 0035.72 Z 0.375
 G1 X 0043.66 Y 0100.98 E 0037.85 Z 0.375
 G1 X 0046.55 Y 0094.51 E 0039.98 Z 0.375
 G1 X 0049.57 Y 0088.10 E 0042.10 Z 0.375
 G1 X 0052.77 Y 0081.78 E 0044.23 Z 0.375
 G1 X 0056.33 Y 0075.65 E 0046.35 Z 0.375
 G1 X 0060.22 Y 0069.73 E 0048.48 Z 0.375
 G1 X 0064.13 Y 0063.82 E 0050.61 Z 0.375
 G1 X 0068.09 Y 0057.94 E 0052.73 Z 0.375
 G1 X 0072.09 Y 0052.10 E 0054.86 Z 0.375
 G1 X 0076.21 Y 0046.33 E 0056.98 Z 0.375
 G1 X 0080.41 Y 0040.62 E 0059.11 Z 0.375
 G1 X 0084.75 Y 0035.02 E 0061.23 Z 0.375
 G1 X 0089.24 Y 0029.53 E 0063.36 Z 0.375
 G1 X 0093.96 Y 0024.25 E 0065.49 Z 0.375
 G1 X 0099.00 Y 0019.27 E 0067.61 Z 0.375
 G1 X 0104.41 Y 0014.70 E 0069.74 Z 0.375
 G1 X 0110.30 Y 0010.77 E 0071.86 Z 0.375
 G1 X 0116.74 Y 0007.82 E 0073.99 Z 0.375
 G1 X 0123.63 Y 0006.25 E 0076.11 Z 0.375
 G1 X 0130.71 Y 0006.26 E 0078.23 Z 0.375
 G1 X 0137.64 Y 0007.67 E 0080.35 Z 0.375
 G1 X 0144.29 Y 0010.10 E 0082.48 Z 0.375
 G1 X 0150.66 Y 0013.20 E 0084.60 Z 0.375
 G1 X 0156.68 Y 0016.94 E 0086.73 Z 0.375
 G1 X 0162.03 Y 0021.56 E 0088.85 Z 0.375
 G1 X 0166.21 Y 0027.27 E 0090.97 Z 0.375
 G1 X 0168.74 Y 0033.86 E 0093.09 Z 0.375
 G1 X 0169.52 Y 0040.89 E 0095.21 Z 0.375
 G1 X 0168.88 Y 0047.93 E 0097.33 Z 0.375
 G1 X 0167.28 Y 0054.84 E 0099.46 Z 0.375
 G1 X 0165.03 Y 0061.55 E 0101.58 Z 0.375
 G1 X 0162.29 Y 0068.09 E 0103.71 Z 0.375
 G1 X 0159.23 Y 0074.49 E 0105.84 Z 0.375
 G1 X 0155.85 Y 0080.71 E 0107.96 Z 0.375
 G1 X 0152.19 Y 0086.78 E 0110.09 Z 0.375
 G1 X 0148.44 Y 0092.80 E 0112.21 Z 0.375
 G1 X 0145.97 Y 0096.74 E 0113.61 Z 0.375
 G1 X 0142.20 Y 0102.74 E 0115.74 Z 0.375
 G1 X 0138.39 Y 0108.71 E 0117.86 Z 0.375
 G1 X 0134.56 Y 0114.67 E 0119.99 Z 0.375
 G1 X 0130.69 Y 0120.61 E 0122.11 Z 0.375
 G1 X 0126.78 Y 0126.52 E 0124.24 Z 0.375
 G1 X 0122.84 Y 0132.41 E 0126.37 Z 0.375
 G1 X 0118.84 Y 0138.27 E 0128.49 Z 0.375
 G1 X 0114.80 Y 0144.09 E 0130.62 Z 0.375
 G1 X 0110.74 Y 0149.89 E 0132.74 Z 0.375
 G1 X 0106.69 Y 0155.71 E 0134.87 Z 0.375
 G1 X 0102.77 Y 0161.61 E 0137.00 Z 0.375
 G1 X 0098.97 Y 0167.60 E 0139.12 Z 0.375
 G1 X 0095.45 Y 0173.75 E 0141.25 Z 0.375
 G1 X 0092.25 Y 0180.07 E 0143.37 Z 0.375
 G1 X 0089.24 Y 0186.48 E 0145.50 Z 0.375
G1 X 0072.27 Y 0051.85 Z 0.375
 G1 X 0167.97 Y 0051.85 E 0174.21 Z 0.375
G1 X 0168.16 Y 0051.05 Z 0.375
 G1 X 0072.84 Y 0051.05 E 0202.81 Z 0.375
G1 X 0073.41 Y 0050.25 Z 0.375
 G1 X 0168.34 Y 0050.25 E 0231.29 Z 0.375
G1 X 0168.53 Y 0049.45 Z 0.375
 G1 X 0073.98 Y 0049.45 E 0259.65 Z 0.375
G1 X 0074.55 Y 0048.65 Z 0.375
 G1 X 0168.71 Y 0048.65 E 0287.90 Z 0.375
G1 X 0168.89 Y 0047.85 Z 0.375
 G1 X 0075.12 Y 0047.85 E 0316.03 Z 0.375
G1 X 0075.69 Y 0047.05 Z 0.375
 G1 X 0168.96 Y 0047.05 E 0344.01 Z 0.375
G1 X 0169.03 Y 0046.25 Z 0.375
 G1 X 0076.26 Y 0046.25 E 0371.85 Z 0.375
G1 X 0076.85 Y 0045.45 Z 0.375
 G1 X 0169.10 Y 0045.45 E 0399.52 Z 0.375
G1 X 0169.18 Y 0044.65 Z 0.375
 G1 X 0077.44 Y 0044.65 E 0427.04 Z 0.375
G1 X 0078.03 Y 0043.85 Z 0.375
 G1 X 0169.25 Y 0043.85 E 0454.41 Z 0.375
G1 X 0169.32 Y 0043.05 Z 0.375
 G1 X 0078.62 Y 0043.05 E 0481.62 Z 0.375
G1 X 0079.21 Y 0042.25 Z 0.375
 G1 X 0169.39 Y 0042.25 E 0508.67 Z 0.375
G1 X 0169.46 Y 0041.45 Z 0.375
 G1 X 0079.80 Y 0041.45 E 0535.57 Z 0.375
G1 X 0080.39 Y 0040.65 Z 0.375
 G1 X 0169.49 Y 0040.65 E 0562.30 Z 0.375
G1 X 0169.40 Y 0039.85 Z 0.375
 G1 X 0081.01 Y 0039.85 E 0588.82 Z 0.375
G1 X 0081.62 Y 0039.05 Z 0.375
 G1 X 0169.31 Y 0039.05 E 0615.13 Z 0.375
G1 X 0169.22 Y 0038.25 Z 0.375
 G1 X 0082.24 Y 0038.25 E 0641.22 Z 0.375
G1 X 0082.86 Y 0037.45 Z 0.375
 G1 X 0169.13 Y 0037.45 E 0667.10 Z 0.375
G1 X 0169.05 Y 0036.65 Z 0.375
 G1 X 0083.48 Y 0036.65 E 0692.77 Z 0.375
G1 X 0084.10 Y 0035.85 Z 0.375
 G1 X 0168.96 Y 0035.85 E 0718.22 Z 0.375
G1 X 0168.87 Y 0035.05 Z 0.375
 G1 X 0084.72 Y 0035.05 E 0743.47 Z 0.375
G1 X 0085.38 Y 0034.25 Z 0.375
 G1 X 0168.78 Y 0034.25 E 0768.49 Z 0.375
G1 X 0168.58 Y 0033.45 Z 0.375
 G1 X 0086.03 Y 0033.45 E 0793.25 Z 0.375
G1 X 0086.69 Y 0032.65 Z 0.375
 G1 X 0168.27 Y 0032.65 E 0817.73 Z 0.375
G1 X 0167.97 Y 0031.85 Z 0.375
 G1 X 0087.34 Y 0031.85 E 0841.91 Z 0.375
G1 X 0088.00 Y 0031.05 Z 0.375
 G1 X 0167.66 Y 0031.05 E 0865.81 Z 0.375
G1 X 0167.35 Y 0030.25 Z 0.375
 G1 X 0088.66 Y 0030.25 E 0889.42 Z 0.375
G1 X 0089.32 Y 0029.45 Z 0.375
 G1 X 0167.05 Y 0029.45 E 0912.74 Z 0.375
G1 X 0166.74 Y 0028.65 Z 0.375
 G1 X 0090.03 Y 0028.65 E 0935.75 Z 0.375
G1 X 0090.75 Y 0027.85 Z 0.375
 G1 X 0166.43 Y 0027.85 E 0958.46 Z 0.375
G1 X 0166.05 Y 0027.05 Z 0.375
 G1 X 0091.46 Y 0027.05 E 0980.83 Z 0.375
G1 X 0092.18 Y 0026.25 Z 0.375
 G1 X 0165.47 Y 0026.25 E 1002.82 Z 0.375
G1 X 0164.88 Y 0025.45 Z 0.375
 G1 X 0092.89 Y 0025.45 E 1024.42 Z 0.375
G1 X 0093.61 Y 0024.65 Z 0.375
 G1 X 0164.29 Y 0024.65 E 1045.62 Z 0.375
G1 X 0163.71 Y 0023.85 Z 0.375
 G1 X 0094.37 Y 0023.85 E 1066.43 Z 0.375
G1 X 0095.18 Y 0023.05 Z 0.375
 G1 X 0163.12 Y 0023.05 E 1086.81 Z 0.375
G1 X 0162.54 Y 0022.25 Z 0.375
 G1 X 0095.98 Y 0022.25 E 1106.78 Z 0.375
G1 X 0096.79 Y 0021.45 Z 0.375
 G1 X 0161.91 Y 0021.45 E 1126.31 Z 0.375
G1 X 0160.98 Y 0020.65 Z 0.375
 G1 X 0097.60 Y 0020.65 E 1145.32 Z 0.375
G1 X 0098.41 Y 0019.85 Z 0.375
 G1 X 0160.05 Y 0019.85 E 1163.82 Z 0.375
G1 X 0159.12 Y 0019.05 Z 0.375
 G1 X 0099.25 Y 0019.05 E 1181.78 Z 0.375
G1 X 0100.20 Y 0018.25 Z 0.375
 G1 X 0158.20 Y 0018.25 E 1199.18 Z 0.375
G1 X 0157.27 Y 0017.45 Z 0.375
 G1 X 0101.15 Y 0017.45 E 1216.02 Z 0.375
G1 X 0102.09 Y 0016.65 Z 0.375
 G1 X 0156.21 Y 0016.65 E 1232.25 Z 0.375
G1 X 0154.93 Y 0015.85 Z 0.375
 G1 X 0103.04 Y 0015.85 E 1247.82 Z 0.375
G1 X 0103.99 Y 0015.05 Z 0.375
 G1 X 0153.64 Y 0015.05 E 1262.72 Z 0.375
G1 X 0152.36 Y 0014.25 Z 0.375
 G1 X 0105.07 Y 0014.25 E 1276.90 Z 0.375
G1 X 0106.27 Y 0013.45 Z 0.375
 G1 X 0151.07 Y 0013.45 E 1290.34 Z 0.375
G1 X 0149.54 Y 0012.65 Z 0.375
 G1 X 0107.47 Y 0012.65 E 1302.96 Z 0.375
G1 X 0108.67 Y 0011.85 Z 0.375
 G1 X 0147.89 Y 0011.85 E 1314.72 Z 0.375
G1 X 0146.24 Y 0011.05 Z 0.375
 G1 X 0109.87 Y 0011.05 E 1325.63 Z 0.375
G1 X 0111.43 Y 0010.25 Z 0.375
 G1 X 0144.60 Y 0010.25 E 1335.58 Z 0.375
G1 X 0142.52 Y 0009.45 Z 0.375
 G1 X 0113.17 Y 0009.45 E 1344.39 Z 0.375
G1 X 0114.92 Y 0008.65 Z 0.375
 G1 X 0140.33 Y 0008.65 E 1352.01 Z 0.375
G1 X 0138.15 Y 0007.85 Z 0.375
 G1 X 0116.67 Y 0007.85 E 1358.45 Z 0.375
G1 X 0071.71 Y 0052.65 Z 0.375
 G1 X 0167.79 Y 0052.65 E 1387.28 Z 0.375
G1 X 0167.61 Y 0053.45 Z 0.375
 G1 X 0071.16 Y 0053.45 E 1416.21 Z 0.375
G1 X 0070.61 Y 0054.25 Z 0.375
 G1 X 0167.42 Y 0054.25 E 1445.25 Z 0.375
G1 X 0167.21 Y 0055.05 Z 0.375
 G1 X 0070.07 Y 0055.05 E 1474.40 Z 0.375
G1 X 0069.52 Y 0055.85 Z 0.375
 G1 X 0166.94 Y 0055.85 E 1503.62 Z 0.375
G1 X 0166.68 Y 0056.65 Z 0.375
 G1 X 0068.97 Y 0056.65 E 1532.93 Z 0.375
G1 X 0068.42 Y 0057.45 Z 0.375
 G1 X 0166.41 Y 0057.45 E 1562.33 Z 0.375
G1 X 0166.14 Y 0058.25 Z 0.375
 G1 X 0067.88 Y 0058.25 E 1591.81 Z 0.375
G1 X 0067.34 Y 0059.05 Z 0.375
 G1 X 0165.87 Y 0059.05 E 1621.37 Z 0.375
G1 X 0165.60 Y 0059.85 Z 0.375
 G1 X 0066.80 Y 0059.85 E 1651.00 Z 0.375
G1 X 0066.26 Y 0060.65 Z 0.375
 G1 X 0165.33 Y 0060.65 E 1680.72 Z 0.375
G1 X 0165.06 Y 0061.45 Z 0.375
 G1 X 0065.73 Y 0061.45 E 1710.52 Z 0.375
G1 X 0065.19 Y 0062.25 Z 0.375
 G1 X 0164.73 Y 0062.25 E 1740.39 Z 0.375
G1 X 0164.40 Y 0063.05 Z 0.375
 G1 X 0064.65 Y 0063.05 E 1770.31 Z 0.375
G1 X 0064.12 Y 0063.85 Z 0.375
 G1 X 0164.06 Y 0063.85 E 1800.30 Z 0.375
G1 X 0163.73 Y 0064.65 Z 0.375
 G1 X 0063.58 Y 0064.65 E 1830.34 Z 0.375
G1 X 0063.05 Y 0065.45 Z 0.375
 G1 X 0163.40 Y 0065.45 E 1860.44 Z 0.375
G1 X 0163.06 Y 0066.25 Z 0.375
 G1 X 0062.52 Y 0066.25 E 1890.60 Z 0.375
G1 X 0061.99 Y 0067.05 Z 0.375
 G1 X 0162.73 Y 0067.05 E 1920.82 Z 0.375
G1 X 0162.39 Y 0067.85 Z 0.375
 G1 X 0061.46 Y 0067.85 E 1951.10 Z 0.375
G1 X 0060.93 Y 0068.65 Z 0.375
 G1 X 0162.02 Y 0068.65 E 1981.43 Z 0.375
G1 X 0161.64 Y 0069.45 Z 0.375
 G1 X 0060.40 Y 0069.45 E 2011.80 Z 0.375
G1 X 0059.88 Y 0070.25 Z 0.375
 G1 X 0161.26 Y 0070.25 E 2042.21 Z 0.375
G1 X 0160.88 Y 0071.05 Z 0.375
 G1 X 0059.35 Y 0071.05 E 2072.67 Z 0.375
G1 X 0058.83 Y 0071.85 Z 0.375
 G1 X 0160.49 Y 0071.85 E 2103.17 Z 0.375
G1 X 0160.11 Y 0072.65 Z 0.375
 G1 X 0058.30 Y 0072.65 E 2133.71 Z 0.375
G1 X 0057.77 Y 0073.45 Z 0.375
 G1 X 0159.73 Y 0073.45 E 2164.30 Z 0.375
G1 X 0159.35 Y 0074.25 Z 0.375
 G1 X 0057.25 Y 0074.25 E 2194.93 Z 0.375
G1 X 0056.72 Y 0075.05 Z 0.375
 G1 X 0158.93 Y 0075.05 E 2225.59 Z 0.375
G1 X 0158.49 Y 0075.85 Z 0.375
 G1 X 0056.21 Y 0075.85 E 2256.27 Z 0.375
G1 X 0055.75 Y 0076.65 Z 0.375
 G1 X 0158.06 Y 0076.65 E 2286.97 Z 0.375
G1 X 0157.62 Y 0077.45 Z 0.375
 G1 X 0055.28 Y 0077.45 E 2317.67 Z 0.375
G1 X 0054.82 Y 0078.25 Z 0.375
 G1 X 0157.19 Y 0078.25 E 2348.38 Z 0.375
G1 X 0156.76 Y 0079.05 Z 0.375
 G1 X 0054.36 Y 0079.05 E 2379.10 Z 0.375
G1 X 0053.89 Y 0079.85 Z 0.375
 G1 X 0156.32 Y 0079.85 E 2409.83 Z 0.375
G1 X 0155.89 Y 0080.65 Z 0.375
 G1 X 0053.43 Y 0080.65 E 2440.57 Z 0.375
G1 X 0052.96 Y 0081.45 Z 0.375
 G1 X 0155.41 Y 0081.45 E 2471.30 Z 0.375
G1 X 0154.92 Y 0082.25 Z 0.375
 G1 X 0052.53 Y 0082.25 E 2502.02 Z 0.375
G1 X 0052.13 Y 0083.05 Z 0.375
 G1 X 0154.44 Y 0083.05 E 2532.71 Z 0.375
G1 X 0153.96 Y 0083.85 Z 0.375
 G1 X 0051.72 Y 0083.85 E 2563.38 Z 0.375
G1 X 0051.32 Y 0084.65 Z 0.375
 G1 X 0153.47 Y 0084.65 E 2594.03 Z 0.375
G1 X 0152.99 Y 0085.45 Z 0.375
 G1 X 0050.91 Y 0085.45 E 2624.65 Z 0.375
G1 X 0050.51 Y 0086.25 Z 0.375
 G1 X 0152.51 Y 0086.25 E 2655.25 Z 0.375
G1 X 0152.02 Y 0087.05 Z 0.375
 G1 X 0050.10 Y 0087.05 E 2685.83 Z 0.375
G1 X 0049.70 Y 0087.85 Z 0.375
 G1 X 0151.52 Y 0087.85 E 2716.38 Z 0.375
G1 X 0151.02 Y 0088.65 Z 0.375
 G1 X 0049.31 Y 0088.65 E 2746.89 Z 0.375
G1 X 0048.93 Y 0089.45 Z 0.375
 G1 X 0150.53 Y 0089.45 E 2777.37 Z 0.375
G1 X 0150.03 Y 0090.25 Z 0.375
 G1 X 0048.56 Y 0090.25 E 2807.81 Z 0.375
G1 X 0048.18 Y 0091.05 Z 0.375
 G1 X 0149.53 Y 0091.05 E 2838.22 Z 0.375
G1 X 0149.03 Y 0091.85 Z 0.375
 G1 X 0047.80 Y 0091.85 E 2868.59 Z 0.375
G1 X 0047.43 Y 0092.65 Z 0.375
 G1 X 0148.53 Y 0092.65 E 2898.92 Z 0.375
G1 X 0148.03 Y 0093.45 Z 0.375
 G1 X 0047.05 Y 0093.45 E 2929.21 Z 0.375
G1 X 0046.67 Y 0094.25 Z 0.375
 G1 X 0147.53 Y 0094.25 E 2959.47 Z 0.375
G1 X 0147.03 Y 0095.05 Z 0.375
 G1 X 0046.31 Y 0095.05 E 2989.69 Z 0.375
G1 X 0045.95 Y 0095.85 Z 0.375
 G1 X 0146.53 Y 0095.85 E 3019.86 Z 0.375
G1 X 0146.03 Y 0096.65 Z 0.375
 G1 X 0045.59 Y 0096.65 E 3049.99 Z 0.375
G1 X 0045.23 Y 0097.45 Z 0.375
 G1 X 0145.52 Y 0097.45 E 3080.08 Z 0.375
G1 X 0145.02 Y 0098.25 Z 0.375
 G1 X 0044.88 Y 0098.25 E 3110.12 Z 0.375
G1 X 0044.52 Y 0099.05 Z 0.375
 G1 X 0144.52 Y 0099.05 E 3140.12 Z 0.375
G1 X 0144.01 Y 0099.85 Z 0.375
 G1 X 0044.16 Y 0099.85 E 3170.07 Z 0.375
G1 X 0043.80 Y 0100.65 Z 0.375
 G1 X 0143.51 Y 0100.65 E 3199.99 Z 0.375
G1 X 0143.01 Y 0101.45 Z 0.375
 G1 X 0043.46 Y 0101.45 E 3229.85 Z 0.375
G1 X 0043.12 Y 0102.25 Z 0.375
 G1 X 0142.50 Y 0102.25 E 3259.67 Z 0.375
G1 X 0142.00 Y 0103.05 Z 0.375
 G1 X 0042.78 Y 0103.05 E 3289.43 Z 0.375
G1 X 0042.44 Y 0103.85 Z 0.375
 G1 X 0141.49 Y 0103.85 E 3319.15 Z 0.375
G1 X 0140.98 Y 0104.65 Z 0.375
 G1 X 0042.10 Y 0104.65 E 3348.81 Z 0.375
G1 X 0041.76 Y 0105.45 Z 0.375
 G1 X 0140.47 Y 0105.45 E 3378.42 Z 0.375
G1 X 0139.96 Y 0106.25 Z 0.375
 G1 X 0041.43 Y 0106.25 E 3407.98 Z 0.375
G1 X 0041.09 Y 0107.05 Z 0.375
 G1 X 0139.45 Y 0107.05 E 3437.49 Z 0.375
G1 X 0138.93 Y 0107.85 Z 0.375
 G1 X 0040.75 Y 0107.85 E 3466.94 Z 0.375
G1 X 0040.43 Y 0108.65 Z 0.375
 G1 X 0138.42 Y 0108.65 E 3496.34 Z 0.375
G1 X 0137.91 Y 0109.45 Z 0.375
 G1 X 0040.10 Y 0109.45 E 3525.68 Z 0.375
G1 X 0039.78 Y 0110.25 Z 0.375
 G1 X 0137.40 Y 0110.25 E 3554.97 Z 0.375
G1 X 0136.88 Y 0111.05 Z 0.375
 G1 X 0039.45 Y 0111.05 E 3584.19 Z 0.375
G1 X 0039.13 Y 0111.85 Z 0.375
 G1 X 0136.37 Y 0111.85 E 3613.37 Z 0.375
G1 X 0135.86 Y 0112.65 Z 0.375
 G1 X 0038.80 Y 0112.65 E 3642.48 Z 0.375
G1 X 0038.48 Y 0113.45 Z 0.375
 G1 X 0135.34 Y 0113.45 E 3671.54 Z 0.375
G1 X 0134.83 Y 0114.25 Z 0.375
 G1 X 0038.15 Y 0114.25 E 3700.55 Z 0.375
G1 X 0037.84 Y 0115.05 Z 0.375
 G1 X 0134.31 Y 0115.05 E 3729.49 Z 0.375
G1 X 0133.79 Y 0115.85 Z 0.375
 G1 X 0037.53 Y 0115.85 E 3758.36 Z 0.375
G1 X 0037.22 Y 0116.65 Z 0.375
 G1 X 0133.27 Y 0116.65 E 3787.18 Z 0.375
G1 X 0132.75 Y 0117.45 Z 0.375
 G1 X 0036.90 Y 0117.45 E 3815.94 Z 0.375
G1 X 0036.59 Y 0118.25 Z 0.375
 G1 X 0132.23 Y 0118.25 E 3844.63 Z 0.375
G1 X 0131.71 Y 0119.05 Z 0.375
 G1 X 0036.28 Y 0119.05 E 3873.26 Z 0.375
G1 X 0035.96 Y 0119.85 Z 0.375
 G1 X 0131.19 Y 0119.85 E 3901.83 Z 0.375
G1 X 0130.67 Y 0120.65 Z 0.375
 G1 X 0035.65 Y 0120.65 E 3930.33 Z 0.375
G1 X 0035.34 Y 0121.45 Z 0.375
 G1 X 0130.14 Y 0121.45 E 3958.77 Z 0.375
G1 X 0129.61 Y 0122.25 Z 0.375
 G1 X 0035.02 Y 0122.25 E 3987.15 Z 0.375
G1 X 0034.71 Y 0123.05 Z 0.375
 G1 X 0129.08 Y 0123.05 E 4015.46 Z 0.375
G1 X 0128.55 Y 0123.85 Z 0.375
 G1 X 0034.40 Y 0123.85 E 4043.70 Z 0.375
G1 X 0034.08 Y 0124.65 Z 0.375
 G1 X 0128.02 Y 0124.65 E 4071.88 Z 0.375
G1 X 0127.49 Y 0125.45 Z 0.375
 G1 X 0033.77 Y 0125.45 E 4100.00 Z 0.375
G1 X 0033.46 Y 0126.25 Z 0.375
 G1 X 0126.96 Y 0126.25 E 4128.05 Z 0.375
G1 X 0126.43 Y 0127.05 Z 0.375
 G1 X 0033.14 Y 0127.05 E 4156.04 Z 0.375
G1 X 0032.86 Y 0127.85 Z 0.375
 G1 X 0125.89 Y 0127.85 E 4183.94 Z 0.375
G1 X 0125.35 Y 0128.65 Z 0.375
 G1 X 0032.60 Y 0128.65 E 4211.77 Z 0.375
G1 X 0032.33 Y 0129.45 Z 0.375
 G1 X 0124.82 Y 0129.45 E 4239.52 Z 0.375
G1 X 0124.28 Y 0130.25 Z 0.375
 G1 X 0032.06 Y 0130.25 E 4267.18 Z 0.375
G1 X 0031.79 Y 0131.05 Z 0.375
 G1 X 0123.75 Y 0131.05 E 4294.77 Z 0.375
G1 X 0123.21 Y 0131.85 Z 0.375
 G1 X 0031.53 Y 0131.85 E 4322.28 Z 0.375
G1 X 0031.26 Y 0132.65 Z 0.375
 G1 X 0122.67 Y 0132.65 E 4349.70 Z 0.375
G1 X 0122.12 Y 0133.45 Z 0.375
 G1 X 0030.99 Y 0133.45 E 4377.04 Z 0.375
G1 X 0030.73 Y 0134.25 Z 0.375
 G1 X 0121.58 Y 0134.25 E 4404.29 Z 0.375
G1 X 0121.03 Y 0135.05 Z 0.375
 G1 X 0030.50 Y 0135.05 E 4431.45 Z 0.375
G1 X 0030.26 Y 0135.85 Z 0.375
 G1 X 0120.49 Y 0135.85 E 4458.52 Z 0.375
G1 X 0119.94 Y 0136.65 Z 0.375
 G1 X 0030.02 Y 0136.65 E 4485.50 Z 0.375
G1 X 0029.78 Y 0137.45 Z 0.375
 G1 X 0119.40 Y 0137.45 E 4512.39 Z 0.375
G1 X 0118.85 Y 0138.25 Z 0.375
 G1 X 0029.54 Y 0138.25 E 4539.18 Z 0.375
G1 X 0029.30 Y 0139.05 Z 0.375
 G1 X 0118.30 Y 0139.05 E 4565.88 Z 0.375
G1 X 0117.74 Y 0139.85 Z 0.375
 G1 X 0029.07 Y 0139.85 E 4592.48 Z 0.375
G1 X 0028.83 Y 0140.65 Z 0.375
 G1 X 0117.19 Y 0140.65 E 4618.99 Z 0.375
G1 X 0116.63 Y 0141.45 Z 0.375
 G1 X 0031.42 Y 0141.45 E 4644.55 Z 0.375
